style-img/Slide 16_9 - 10.svg

<svg width="1440" height="810" fill="none" xmlns="http://www.w3.org/2000/svg"><path d="M911.221 121.8 969 84l57.78 37.8 39.02-22.68 25.37 44.28 72.2-7.56-18.54 55.08 73.17 21.6-48.78 55.08 31.22 33.48-55.61 25.92L969 324.713 793.171 327l-55.61-25.92 31.22-33.48L720 212.52l73.171-21.6-18.536-55.08 72.196 7.56 25.366-44.28 39.024 22.68Z" fill="#E7D3A1"/><path d="m869.112 246.232 8.496-35.888h4.746l1.084 5.976-9.053 36.68h-5.098l-.175-6.768Zm-4.366-35.888 7.032 35.888-.586 6.768h-5.684l-9.463-42.656h8.701Zm26.163 35.742 6.943-35.742h8.701L897.12 253h-5.684l-.527-6.914Zm-5.889-35.742 8.555 36.035-.235 6.621h-5.097l-9.112-36.709 1.172-5.947h4.717Zm61.956 17.373v6.855H924.71v-6.855h22.266Zm-19.658-17.373V253h-8.789v-42.656h8.789Zm25.927 0V253h-8.759v-42.656h8.759Zm32.718 7.295L974.361 253h-9.345l15.849-42.656h5.947l-.849 7.295ZM995.602 253l-11.631-35.361-.938-7.295h6.006L1004.98 253h-9.378Zm-.528-15.879v6.885h-22.529v-6.885h22.529Zm36.496-26.777V253h-8.76v-42.656h8.76Zm13.13 0v6.885h-34.81v-6.885h34.81Zm26.06 29.619h-7.47c.02-1.758.16-3.272.41-4.541.28-1.289.74-2.451 1.38-3.486.66-1.036 1.54-2.061 2.64-3.077.91-.82 1.72-1.601 2.4-2.343.68-.743 1.22-1.504 1.61-2.286.39-.8.59-1.689.59-2.666 0-1.132-.18-2.07-.53-2.812-.33-.762-.84-1.338-1.52-1.729-.67-.39-1.51-.585-2.52-.585-.84 0-1.63.185-2.35.556-.72.352-1.32.899-1.79 1.641-.44.742-.68 1.719-.7 2.929h-8.49c.05-2.675.67-4.882 1.84-6.621 1.19-1.757 2.78-3.056 4.78-3.896 1.99-.859 4.23-1.289 6.71-1.289 2.73 0 5.07.449 7.03 1.347 1.95.879 3.44 2.178 4.48 3.897 1.03 1.699 1.55 3.769 1.55 6.211 0 1.699-.33 3.213-.99 4.541a15.852 15.852 0 0 1-2.61 3.662 90.035 90.035 0 0 1-3.55 3.516c-1.11.996-1.87 2.041-2.28 3.134-.39 1.094-.6 2.393-.62 3.897Zm-8.35 9.053c0-1.25.43-2.286 1.29-3.106.86-.84 2.01-1.26 3.46-1.26 1.43 0 2.57.42 3.43 1.26.88.82 1.32 1.856 1.32 3.106 0 1.211-.44 2.236-1.32 3.076-.86.84-2 1.26-3.43 1.26-1.45 0-2.6-.42-3.46-1.26-.86-.84-1.29-1.865-1.29-3.076ZM350.32 392.9H367v3.3h-16.68v-3.3Zm0-8.04H367v3.24h-16.68v-3.24Zm-6.48-5.1v21.6h29.94v-21.6h-29.94Zm4.5 20.04c-2.1 5.22-6.36 10.86-13.32 14.94 1.44.96 3.6 3.42 4.5 5.04 7.98-5.16 12.72-11.76 15.78-18.84l-6.96-1.14Zm1.74 4.92L346 410.6h25.38v-5.88h-21.3Zm18.84 0v1.14c-.42 14.82-.96 20.1-1.92 21.36-.54.66-1.02.84-1.8.84-.96 0-2.76-.06-4.74-.3.78 1.56 1.5 3.96 1.56 5.58 2.7.06 5.1.06 6.66-.18 1.68-.24 3-.78 4.14-2.28 1.56-2.04 2.22-7.8 2.76-23.52.06-.84.06-2.64.06-2.64h-6.72Zm-25.38 6.9v11.22c0 5.58 1.32 7.32 7.44 7.32h7.38c4.32 0 6-1.44 6.78-6.96-1.74-.36-4.26-1.32-5.46-2.28-.18 3.12-.48 3.6-1.98 3.6h-5.88c-1.98 0-2.28-.24-2.28-1.8v-11.1h-6Zm15 .72c-2.76 1.86-7.62 3.84-12 5.1.72 1.2 1.62 3.18 1.92 4.32 4.92-1.2 10.62-3 14.94-5.28l-4.86-4.14Zm-31.68-29.28v6.48h6.96v21.18h-6.96v6.6h13.02v-34.26h-13.02Zm-4.02 0v39.24h6.24v-39.24h-6.24Zm82.68 14.52v27.3c0 1.02-.48 1.38-1.8 1.38-1.38 0-6.3 0-10.56-.18 1.14 1.98 2.52 5.22 2.94 7.32 5.76 0 10.08-.12 13.02-1.2 3-1.08 4.02-3.06 4.02-7.14v-27.48h-7.62ZM385 381.26v7.08h41.94v-7.08H385Zm39.24 0V383c-3 4.56-10.08 11.76-16.32 15.72 1.44 1.14 3.78 3.54 4.92 5.1 7.38-4.62 15.3-12.24 20.7-18.84l-5.64-4.2-1.74.48h-1.92Zm30.66 19.2h-13.62v6.66H448v15.42h6.9v-22.08Zm0 19.26h-6.24c-2.64 2.22-5.58 4.38-8.1 6l3.42 7.14c3-2.58 5.52-4.86 7.92-7.2 3.6 4.62 8.46 6.36 15.66 6.66 7.32.36 20.1.24 27.6-.12.3-2.1 1.44-5.4 2.22-7.02-8.34.66-22.56.84-29.76.48-6.18-.24-10.44-1.98-12.72-5.94Zm-13.44-37.08c3.42 2.94 7.44 7.08 9.06 10.02l5.94-4.56c-1.86-2.82-6.06-6.84-9.48-9.48l-5.52 4.02Zm14.4 10.02v4.98h40.38v-4.98h-40.38Zm11.46 10.86h17.22v3.06h-17.22v-3.06Zm-6.66-4.02v11.1h31.02v-11.1h-31.02Zm12.9 7.62c-3.66 4.5-10.62 8.22-17.4 10.44 1.32 1.26 3.3 3.9 4.14 5.28 7.14-2.88 14.76-7.74 19.26-13.62l-6-2.1Zm16.62.96c-1.86 1.92-5.16 4.74-7.62 6.3l3.78 2.88c2.58-1.38 5.82-3.54 8.94-5.7l-5.1-3.48Zm-11.88 1.5-5.16 1.5c3.96 6.3 10.8 10.86 19.26 12.84.84-1.68 2.58-4.14 3.96-5.4-7.92-1.26-14.7-4.44-18.06-8.94Zm4.98-26.94h3.84v4.14h-3.84v-4.14Zm-9.24 0h3.78v4.14h-3.78v-4.14Zm-9.12 0h3.72v4.14h-3.72v-4.14Zm-6.06-4.02v12.24h34.62v-12.24h-34.62Zm13.08 29.76v16.14h6.84v-16.14h-6.84Zm37.92-31.62c-1.26 4.8-3.72 11.16-5.88 15.24l6.24 1.62c2.28-3.84 4.98-9.72 7.14-15.24l-7.5-1.62Zm-9.06 12.3.54 6.84c6.84-.42 16.08-.96 24.9-1.62l.06-6.24c-9.3.42-19.02.84-25.5 1.02Zm3.54 9.66v34.62H511v-28.68h12.42v-5.94h-19.08Zm15.66 0v27.24c0 .78-.24.96-.96.96-.78.06-3.18.06-5.28-.06.9 1.74 1.92 4.5 2.28 6.42 3.66 0 6.36-.12 8.46-1.2 2.04-1.08 2.64-2.88 2.64-5.94v-27.42H520Zm-12.6 9.06v5.34h16.62v-5.34H507.4Zm0 8.82v5.34h16.62v-5.34H507.4Zm24.42-39.3v18.12c0 6.66 1.74 8.7 8.82 8.7h8.28c5.58 0 7.5-2.16 8.28-9.96-1.98-.42-4.92-1.5-6.42-2.64-.24 5.28-.6 6.18-2.58 6.18h-6.54c-2.28 0-2.64-.3-2.64-2.4v-18h-7.2Zm18 3.54c-3.96 2.28-10.14 4.98-15.72 6.72.78 1.38 1.74 3.54 2.04 4.98 5.94-1.62 12.9-3.9 18.24-6.48l-4.56-5.22Zm-18 24.48v18.96c0 6.66 1.8 8.7 8.88 8.7h8.52c5.76 0 7.68-2.4 8.46-10.86-1.98-.42-4.86-1.56-6.36-2.64-.3 6.12-.66 7.2-2.76 7.2h-6.84c-2.34 0-2.76-.24-2.76-2.46v-18.9h-7.14Zm18.48 2.52c-4.08 2.64-10.5 5.58-16.32 7.44.72 1.38 1.74 3.66 2.1 5.04 6.18-1.74 13.44-4.26 18.9-7.2l-4.68-5.28Zm-32.28-24.48c2.88 4.5 5.76 10.5 6.78 14.34l6.54-2.64c-1.14-3.96-4.26-9.66-7.2-13.98l-6.12 2.28Zm64.68-5.58v29.64h6.84v-29.64h-6.84Zm-6.9 10.14v6.48h20.04v-6.48H575.8Zm.9 16.38V431h6.24v-26.7h-6.24Zm3.84 0v6.12h8.52v10.2h-8.52v6.12h14.82V404.3h-14.82Zm19.8-27.18c-1.2 9.66-3.54 19.14-7.68 25.14 1.2 1.44 3.24 4.68 3.9 6.12 5.28-7.26 8.46-18.72 10.2-30.18l-6.42-1.08Zm1.14 11.04-1.8 6.06h17.46v-6.06h-15.66Zm6.96 2.52c-1.14 18.24-4.86 30.78-16.5 37.68 1.32 1.08 3.54 3.66 4.32 4.86 12.36-8.28 16.74-21.84 18.36-42.18l-6.18-.36Zm-6.24 1.62-5.04 2.28c1.44 13.14 4.56 30.18 16.02 38.58.9-1.74 2.94-4.38 4.2-5.64-10.92-6.96-13.92-22.86-15.18-35.22Zm-30.66-15.12c-2.58 8.76-7.02 17.52-11.88 23.16 1.14 1.92 2.88 6.06 3.48 7.8 6.12-7.2 11.64-18.54 15.06-29.04l-6.66-1.92Zm-4.74 16.44v39.72h6.6v-46.02l-.18-.12-6.42 6.42Zm54.36-12.3v6.3h19.38v-6.3h-19.38Zm.54 17.28v6.36h18v-6.36h-18Zm18.12-4.14v5.7h37.2v-5.7h-37.2Zm-19.5 24.06 1.5 6.78c5.76-1.56 13.14-3.54 19.98-5.46l-.84-6.42c-7.5 1.98-15.36 3.96-20.64 5.1Zm29.46-11.04h17.28v3.84h-17.28v-3.84Zm-6.3-5.1v14.1h30.24v-14.1h-30.24Zm21.42-18.6h3.84v3.9h-3.84v-3.9Zm-8.4 0h3.78v3.9h-3.78v-3.9Zm-8.22 0h3.66v3.9h-3.66v-3.9Zm-5.76-4.8v13.5h32.22v-13.5h-32.22Zm18.06 34.74-5.16 1.5c3.36 8.16 9.36 14.94 17.28 18.24.96-1.74 3-4.32 4.5-5.64-7.62-2.34-13.68-7.8-16.62-14.1Zm10.68 2.58c-1.62 1.56-4.44 3.9-6.42 5.16l4.08 3.24c2.1-1.14 4.86-2.94 7.26-4.74l-4.92-3.66Zm-43.44-32.22v36l6.48-1.08v-34.92h-6.48Zm29.4 28.68c-4.56 5.16-13.5 10.2-21.42 12.66 1.38 1.26 3.24 3.6 4.14 5.1 8.1-3.12 17.1-9.06 22.32-15.48l-5.04-2.28Zm-5.94 8.46v12.18h6.78v-16.74l-6.78 4.56Zm62.64-22.92v35.1h7.26v-35.1h-7.26Zm-15.78 7.5v6.54h38.58v-6.54h-38.58Zm24.42 2.88-5.4 1.98c3.72 7.98 9.9 16.08 16.2 20.58 1.2-1.8 3.48-4.38 5.1-5.76-6.24-3.6-12.6-10.26-15.9-16.8Zm-9.6-.54c-3.48 6.84-10.14 13.68-16.98 17.22 1.56 1.38 3.84 3.96 4.98 5.7 7.08-4.5 13.74-12.48 17.64-20.94l-5.64-1.98ZM708.94 386h17.64v8.04h-17.64V386Zm-6.84-6.3v20.7h31.68v-20.7H702.1Zm-7.86-2.52c-3.18 8.58-8.58 17.1-14.16 22.5 1.2 1.74 3.18 5.7 3.78 7.38 6.66-6.78 13.08-17.52 17.1-27.72l-6.72-2.16Zm-5.76 16.62v39.42h6.84v-46.2l-.06-.06-6.78 6.84Zm77.4 18.78h6.18l1.56-20.52.3-8.94h-9.9l.3 8.94 1.56 20.52ZM769 428.6c3 0 5.28-2.22 5.28-5.34 0-3.12-2.28-5.28-5.28-5.28-3.06 0-5.34 2.16-5.34 5.28s2.22 5.34 5.34 5.34Z" fill="#424242"/></svg>

<svg width="1440" height="810" viewBox="0 0 1440 810" fill="none" xmlns="http://www.w3.org/2000/svg">
<path d="M911.221 121.8L969 84L1026.78 121.8L1065.8 99.12L1091.17 143.4L1163.37 135.84L1144.83 190.92L1218 212.52L1169.22 267.6L1200.44 301.08L1144.83 327L969 324.713L793.171 327L737.561 301.08L768.781 267.6L720 212.52L793.171 190.92L774.635 135.84L846.831 143.4L872.197 99.12L911.221 121.8Z" fill="#E7D3A1"/>
<path d="M869.112 246.232L877.608 210.344H882.354L883.438 216.32L874.385 253H869.287L869.112 246.232ZM864.746 210.344L871.778 246.232L871.192 253H865.508L856.045 210.344H864.746ZM890.909 246.086L897.852 210.344H906.553L897.12 253H891.436L890.909 246.086ZM885.02 210.344L893.575 246.379L893.34 253H888.243L879.131 216.291L880.303 210.344H885.02ZM946.976 227.717V234.572H924.71V227.717H946.976ZM927.318 210.344V253H918.529V210.344H927.318ZM953.245 210.344V253H944.486V210.344H953.245ZM985.963 217.639L974.361 253H965.016L980.865 210.344H986.812L985.963 217.639ZM995.602 253L983.971 217.639L983.033 210.344H989.039L1004.98 253H995.602ZM995.074 237.121V244.006H972.545V237.121H995.074ZM1031.57 210.344V253H1022.81V210.344H1031.57ZM1044.7 210.344V217.229H1009.89V210.344H1044.7ZM1070.76 239.963H1063.29C1063.31 238.205 1063.45 236.691 1063.7 235.422C1063.98 234.133 1064.44 232.971 1065.08 231.936C1065.74 230.9 1066.62 229.875 1067.72 228.859C1068.63 228.039 1069.44 227.258 1070.12 226.516C1070.8 225.773 1071.34 225.012 1071.73 224.23C1072.12 223.43 1072.32 222.541 1072.32 221.564C1072.32 220.432 1072.14 219.494 1071.79 218.752C1071.46 217.99 1070.95 217.414 1070.27 217.023C1069.6 216.633 1068.76 216.438 1067.75 216.438C1066.91 216.438 1066.12 216.623 1065.4 216.994C1064.68 217.346 1064.08 217.893 1063.61 218.635C1063.17 219.377 1062.93 220.354 1062.91 221.564H1054.42C1054.47 218.889 1055.09 216.682 1056.26 214.943C1057.45 213.186 1059.04 211.887 1061.04 211.047C1063.03 210.188 1065.27 209.758 1067.75 209.758C1070.48 209.758 1072.82 210.207 1074.78 211.105C1076.73 211.984 1078.22 213.283 1079.26 215.002C1080.29 216.701 1080.81 218.771 1080.81 221.213C1080.81 222.912 1080.48 224.426 1079.82 225.754C1079.15 227.062 1078.28 228.283 1077.21 229.416C1076.13 230.549 1074.95 231.721 1073.66 232.932C1072.55 233.928 1071.79 234.973 1071.38 236.066C1070.99 237.16 1070.78 238.459 1070.76 239.963ZM1062.41 249.016C1062.41 247.766 1062.84 246.73 1063.7 245.91C1064.56 245.07 1065.71 244.65 1067.16 244.65C1068.59 244.65 1069.73 245.07 1070.59 245.91C1071.47 246.73 1071.91 247.766 1071.91 249.016C1071.91 250.227 1071.47 251.252 1070.59 252.092C1069.73 252.932 1068.59 253.352 1067.16 253.352C1065.71 253.352 1064.56 252.932 1063.7 252.092C1062.84 251.252 1062.41 250.227 1062.41 249.016Z" fill="#424242"/>
<path d="M350.32 392.9H367V396.2H350.32V392.9ZM350.32 384.86H367V388.1H350.32V384.86ZM343.84 379.76V401.36H373.78V379.76H343.84ZM348.34 399.8C346.24 405.02 341.98 410.66 335.02 414.74C336.46 415.7 338.62 418.16 339.52 419.78C347.5 414.62 352.24 408.02 355.3 400.94L348.34 399.8ZM350.08 404.72L346 410.6H371.38V404.72H350.08ZM368.92 404.72V405.86C368.5 420.68 367.96 425.96 367 427.22C366.46 427.88 365.98 428.06 365.2 428.06C364.24 428.06 362.44 428 360.46 427.76C361.24 429.32 361.96 431.72 362.02 433.34C364.72 433.4 367.12 433.4 368.68 433.16C370.36 432.92 371.68 432.38 372.82 430.88C374.38 428.84 375.04 423.08 375.58 407.36C375.64 406.52 375.64 404.72 375.64 404.72H368.92ZM343.54 411.62V422.84C343.54 428.42 344.86 430.16 350.98 430.16C352.18 430.16 357.1 430.16 358.36 430.16C362.68 430.16 364.36 428.72 365.14 423.2C363.4 422.84 360.88 421.88 359.68 420.92C359.5 424.04 359.2 424.52 357.7 424.52C356.56 424.52 352.66 424.52 351.82 424.52C349.84 424.52 349.54 424.28 349.54 422.72V411.62H343.54ZM358.54 412.34C355.78 414.2 350.92 416.18 346.54 417.44C347.26 418.64 348.16 420.62 348.46 421.76C353.38 420.56 359.08 418.76 363.4 416.48L358.54 412.34ZM326.86 383.06V389.54H333.82V410.72H326.86V417.32H339.88V383.06H326.86ZM322.84 383.06V422.3H329.08V383.06H322.84ZM405.52 397.58V424.88C405.52 425.9 405.04 426.26 403.72 426.26C402.34 426.26 397.42 426.26 393.16 426.08C394.3 428.06 395.68 431.3 396.1 433.4C401.86 433.4 406.18 433.28 409.12 432.2C412.12 431.12 413.14 429.14 413.14 425.06V397.58H405.52ZM385 381.26V388.34H426.94V381.26H385ZM424.24 381.26V383C421.24 387.56 414.16 394.76 407.92 398.72C409.36 399.86 411.7 402.26 412.84 403.82C420.22 399.2 428.14 391.58 433.54 384.98L427.9 380.78L426.16 381.26H424.24ZM454.9 400.46H441.28V407.12H448V422.54H454.9V400.46ZM454.9 419.72H448.66C446.02 421.94 443.08 424.1 440.56 425.72L443.98 432.86C446.98 430.28 449.5 428 451.9 425.66C455.5 430.28 460.36 432.02 467.56 432.32C474.88 432.68 487.66 432.56 495.16 432.2C495.46 430.1 496.6 426.8 497.38 425.18C489.04 425.84 474.82 426.02 467.62 425.66C461.44 425.42 457.18 423.68 454.9 419.72ZM441.46 382.64C444.88 385.58 448.9 389.72 450.52 392.66L456.46 388.1C454.6 385.28 450.4 381.26 446.98 378.62L441.46 382.64ZM455.86 392.66V397.64H496.24V392.66H455.86ZM467.32 403.52H484.54V406.58H467.32V403.52ZM460.66 399.5V410.6H491.68V399.5H460.66ZM473.56 407.12C469.9 411.62 462.94 415.34 456.16 417.56C457.48 418.82 459.46 421.46 460.3 422.84C467.44 419.96 475.06 415.1 479.56 409.22L473.56 407.12ZM490.18 408.08C488.32 410 485.02 412.82 482.56 414.38L486.34 417.26C488.92 415.88 492.16 413.72 495.28 411.56L490.18 408.08ZM478.3 409.58L473.14 411.08C477.1 417.38 483.94 421.94 492.4 423.92C493.24 422.24 494.98 419.78 496.36 418.52C488.44 417.26 481.66 414.08 478.3 409.58ZM483.28 382.64H487.12V386.78H483.28V382.64ZM474.04 382.64H477.82V386.78H474.04V382.64ZM464.92 382.64H468.64V386.78H464.92V382.64ZM458.86 378.62V390.86H493.48V378.62H458.86ZM471.94 408.38V424.52H478.78V408.38H471.94ZM509.86 376.76C508.6 381.56 506.14 387.92 503.98 392L510.22 393.62C512.5 389.78 515.2 383.9 517.36 378.38L509.86 376.76ZM500.8 389.06L501.34 395.9C508.18 395.48 517.42 394.94 526.24 394.28L526.3 388.04C517 388.46 507.28 388.88 500.8 389.06ZM504.34 398.72V433.34H511V404.66H523.42V398.72H504.34ZM520 398.72V425.96C520 426.74 519.76 426.92 519.04 426.92C518.26 426.98 515.86 426.98 513.76 426.86C514.66 428.6 515.68 431.36 516.04 433.28C519.7 433.28 522.4 433.16 524.5 432.08C526.54 431 527.14 429.2 527.14 426.14V398.72H520ZM507.4 407.78V413.12H524.02V407.78H507.4ZM507.4 416.6V421.94H524.02V416.6H507.4ZM531.82 377.3V395.42C531.82 402.08 533.56 404.12 540.64 404.12C542.02 404.12 547.42 404.12 548.92 404.12C554.5 404.12 556.42 401.96 557.2 394.16C555.22 393.74 552.28 392.66 550.78 391.52C550.54 396.8 550.18 397.7 548.2 397.7C546.94 397.7 542.62 397.7 541.66 397.7C539.38 397.7 539.02 397.4 539.02 395.3V377.3H531.82ZM549.82 380.84C545.86 383.12 539.68 385.82 534.1 387.56C534.88 388.94 535.84 391.1 536.14 392.54C542.08 390.92 549.04 388.64 554.38 386.06L549.82 380.84ZM531.82 405.32V424.28C531.82 430.94 533.62 432.98 540.7 432.98C542.14 432.98 547.72 432.98 549.22 432.98C554.98 432.98 556.9 430.58 557.68 422.12C555.7 421.7 552.82 420.56 551.32 419.48C551.02 425.6 550.66 426.68 548.56 426.68C547.24 426.68 542.74 426.68 541.72 426.68C539.38 426.68 538.96 426.44 538.96 424.22V405.32H531.82ZM550.3 407.84C546.22 410.48 539.8 413.42 533.98 415.28C534.7 416.66 535.72 418.94 536.08 420.32C542.26 418.58 549.52 416.06 554.98 413.12L550.3 407.84ZM518.02 383.36C520.9 387.86 523.78 393.86 524.8 397.7L531.34 395.06C530.2 391.1 527.08 385.4 524.14 381.08L518.02 383.36ZM582.7 377.78V407.42H589.54V377.78H582.7ZM575.8 387.92V394.4H595.84V387.92H575.8ZM576.7 404.3V431H582.94V404.3H576.7ZM580.54 404.3V410.42H589.06V420.62H580.54V426.74H595.36V404.3H580.54ZM600.34 377.12C599.14 386.78 596.8 396.26 592.66 402.26C593.86 403.7 595.9 406.94 596.56 408.38C601.84 401.12 605.02 389.66 606.76 378.2L600.34 377.12ZM601.48 388.16L599.68 394.22H617.14V388.16H601.48ZM608.44 390.68C607.3 408.92 603.58 421.46 591.94 428.36C593.26 429.44 595.48 432.02 596.26 433.22C608.62 424.94 613 411.38 614.62 391.04L608.44 390.68ZM602.2 392.3L597.16 394.58C598.6 407.72 601.72 424.76 613.18 433.16C614.08 431.42 616.12 428.78 617.38 427.52C606.46 420.56 603.46 404.66 602.2 392.3ZM571.54 377.18C568.96 385.94 564.52 394.7 559.66 400.34C560.8 402.26 562.54 406.4 563.14 408.14C569.26 400.94 574.78 389.6 578.2 379.1L571.54 377.18ZM566.8 393.62V433.34H573.4V387.32L573.22 387.2L566.8 393.62ZM621.16 381.32V387.62H640.54V381.32H621.16ZM621.7 398.6V404.96H639.7V398.6H621.7ZM639.82 394.46V400.16H677.02V394.46H639.82ZM620.32 418.52L621.82 425.3C627.58 423.74 634.96 421.76 641.8 419.84L640.96 413.42C633.46 415.4 625.6 417.38 620.32 418.52ZM649.78 407.48H667.06V411.32H649.78V407.48ZM643.48 402.38V416.48H673.72V402.38H643.48ZM664.9 383.78H668.74V387.68H664.9V383.78ZM656.5 383.78H660.28V387.68H656.5V383.78ZM648.28 383.78H651.94V387.68H648.28V383.78ZM642.52 378.98V392.48H674.74V378.98H642.52ZM660.58 413.72L655.42 415.22C658.78 423.38 664.78 430.16 672.7 433.46C673.66 431.72 675.7 429.14 677.2 427.82C669.58 425.48 663.52 420.02 660.58 413.72ZM671.26 416.3C669.64 417.86 666.82 420.2 664.84 421.46L668.92 424.7C671.02 423.56 673.78 421.76 676.18 419.96L671.26 416.3ZM627.82 384.08V420.08L634.3 419V384.08H627.82ZM657.22 412.76C652.66 417.92 643.72 422.96 635.8 425.42C637.18 426.68 639.04 429.02 639.94 430.52C648.04 427.4 657.04 421.46 662.26 415.04L657.22 412.76ZM651.28 421.22V433.4H658.06V416.66L651.28 421.22ZM713.92 398.3V433.4H721.18V398.3H713.92ZM698.14 405.8V412.34H736.72V405.8H698.14ZM722.56 408.68L717.16 410.66C720.88 418.64 727.06 426.74 733.36 431.24C734.56 429.44 736.84 426.86 738.46 425.48C732.22 421.88 725.86 415.22 722.56 408.68ZM712.96 408.14C709.48 414.98 702.82 421.82 695.98 425.36C697.54 426.74 699.82 429.32 700.96 431.06C708.04 426.56 714.7 418.58 718.6 410.12L712.96 408.14ZM708.94 386H726.58V394.04H708.94V386ZM702.1 379.7V400.4H733.78V379.7H702.1ZM694.24 377.18C691.06 385.76 685.66 394.28 680.08 399.68C681.28 401.42 683.26 405.38 683.86 407.06C690.52 400.28 696.94 389.54 700.96 379.34L694.24 377.18ZM688.48 393.8V433.22H695.32V387.02L695.26 386.96L688.48 393.8ZM765.88 412.58H772.06L773.62 392.06L773.92 383.12H764.02L764.32 392.06L765.88 412.58ZM769 428.6C772 428.6 774.28 426.38 774.28 423.26C774.28 420.14 772 417.98 769 417.98C765.94 417.98 763.66 420.14 763.66 423.26C763.66 426.38 765.88 428.6 769 428.6Z" fill="#424242"/>
</svg>
